!!!OTL: Die beiden Waisenkinder
!!!OTL-incipit:Es waren zwei Koenigskinder,
!!!ARE: Europa, Mitteleuropa, Deutschland (BRD), Westfalen
!!!YOR: 5, S. 310
!!    ????
!!!SCT: Q1118A
!!!TXL: @@DE
!!!YEM: Copyright 1995, estate of Helmut Schaffrath.
**kern	**text
*ICvox	*
*M6/8	*
*k[f#]	*
*G:	*
!LO:TX:a:t=A 40 655 Westfalen	!
{8d	Es
=1	=1
8gL	wa-
8g	-ren
8gJ	ʒwei
(8gL	Kö-
8f#)	.
8gJ	-nigs-
=2	=2
8a	-kin-
4a	-der,
4r}	.
{8a	die
=3	=3
8aL	hat-
8a	-ten
8ddJ	ein-
8ddL	-an-
8dd	-der
8ccJ	so
=4	=4
4.b}	lieb,
{4.dd	sie_konn-
=5	=5
8bL	-ten
8cc	ʒu-
8ddJ	-sam-
8bL	-men
8cc	.
8ddJ	nicht
=6	=6
4.ee	kom-
(8eeL	-men,
8dd)}	.
{8ccJ	.
=7	=7
8ddL	das
8dd	Was-
8ddJ	-ser
4dd	war
8cc	viel
=8	=8
4.b}	ʒu_tief.
{4.dd	sie_konn-
=9	=9
8bL	-ten
8cc	ʒu-
8ddJ	-sam-
8bL	-men
8cc	.
8ddJ	nicht
=10	=10
4.ee	kom-
(8eeL	-men,
8dd)}	.
{8ccJ	das
=11	=11
8ddL	Was-
8dd	-ser
8ddJ	war
4dd	viel
8cc	ʒu
=12	=12
4.b	tief.
4r}	.
==	==
!!!AGN: Ballade
!! Melodievergleich zu Q0118 ff., anderes Lied.
!!!ONB: ESAC (Essen Associative Code) Database: BALLADE
!!!AMT: compound duple
!!!AIN: vox
!!!EED: Helmut Schaffrath
!!!EEV: 1.0
!!!source: Deutsche Volkslieder mit ihren Melodien Balladen. Herausgegeben vom Deutschen Volksliedarchiv. Fünfter Teil. Freiburg/Breisgau 1965.
!!!page: 310
!!!ENC: Anna Maria Matuszewska
!!!EEV: 2025/03/05
*-	*-
